source/svgs/car.svg

<svg xmlns="http://www.w3.org/2000/svg" viewBox="0 0 15.72 8.52" preserveAspectRatio="xMinYMax"><path fill="#F5F5F5" d="M0 4.33v1.85c0 .22.42.7.73.92.24.82.99 1.42 1.89 1.42.85 0 1.58-.55 1.85-1.31h6.12c.27.76 1 1.31 1.85 1.31s1.58-.55 1.85-1.31h.44c.27 0 .98-.75.98-1.03V3.92c0-.53-.26-.86-2.02-1.23-.27-.48-1.46-1.89-1.67-2.25-.21-.36-.44-.44-.86-.44H6.95c-.16 0-.44.04-.88.44-.61.57-1.55 1.47-2.82 2.67C1.03 3.54 0 3.83 0 4.33zm12.34-1.06H9.31V1.04h1.56c.32 0 .44.08.62.34.14.2.74.97.99 1.32.3.4.16.57-.14.57zm-.88 3.28c0-.54.44-.98.98-.98s.98.44.98.98-.44.98-.98.98-.98-.44-.98-.98zM4.82 3.27c-.26 0-.42-.07-.07-.41.39-.38 1.4-1.33 1.65-1.55.18-.16.45-.27.7-.27h1.92v2.24c-2.01-.01-4.2-.01-4.2-.01zM1.64 6.55c0-.54.44-.98.98-.98s.98.44.98.98-.44.98-.98.98-.98-.44-.98-.98z"/></svg>

<?xml version="1.0" encoding="utf-8"?>
<!-- Generator: Adobe Illustrator 18.1.0, SVG Export Plug-In . SVG Version: 6.00 Build 0)  -->
<svg version="1.1" id="Layer_1" xmlns="http://www.w3.org/2000/svg" xmlns:xlink="http://www.w3.org/1999/xlink" x="0px" y="0px"
	 viewBox="0 0 15.72 8.52" enable-background="new 0 0 15.72 8.52" xml:space="preserve" preserveAspectRatio="xMinYMax">
<path fill="#F5F5F5" d="M0,4.33c0,0.3,0,1.85,0,1.85c0,0.22,0.42,0.7,0.73,0.92c0.24,0.82,0.99,1.42,1.89,1.42
	c0.85,0,1.58-0.55,1.85-1.31h6.12c0.27,0.76,1,1.31,1.85,1.31s1.58-0.55,1.85-1.31h0.44c0.27,0,0.98-0.75,0.98-1.03
	c0,0,0-1.96,0-2.26c0-0.53-0.26-0.86-2.02-1.23c-0.27-0.48-1.46-1.89-1.67-2.25C11.81,0.08,11.58,0,11.16,0c-0.43,0-4.07,0-4.21,0
	C6.79,0,6.51,0.04,6.07,0.44C5.46,1.01,4.52,1.91,3.25,3.11C1.03,3.54,0,3.83,0,4.33z M12.34,3.27c-0.17,0-1.52,0-3.03,0V1.04
	c0.75,0,1.43,0,1.56,0c0.32,0,0.44,0.08,0.62,0.34c0.14,0.2,0.74,0.97,0.99,1.32C12.78,3.1,12.64,3.27,12.34,3.27z M11.46,6.55
	c0-0.54,0.44-0.98,0.98-0.98c0.54,0,0.98,0.44,0.98,0.98c0,0.54-0.44,0.98-0.98,0.98C11.9,7.53,11.46,7.09,11.46,6.55z M4.82,3.27
	c-0.26,0-0.42-0.07-0.07-0.41c0.39-0.38,1.4-1.33,1.65-1.55c0.18-0.16,0.45-0.27,0.7-0.27c0,0,0.97,0,1.92,0v2.24
	C7.01,3.27,4.82,3.27,4.82,3.27z M1.64,6.55c0-0.54,0.44-0.98,0.98-0.98S3.6,6.01,3.6,6.55c0,0.54-0.44,0.98-0.98,0.98
	S1.64,7.09,1.64,6.55z"/>
</svg>
